X: 2036
T: Ashplant, The
R: reel
M: 4/4
K: Edorian
AB|cF~F2 cBAB|cF~F2 EFAB|c2 cB cefg|afec BcAB|
cF F/F/F/ cBAB|cFF2 EFAB|c2 cB cefg|afec BcdB||
c2 ac bcac|c/c/c/ ac cBAB|c/c/c/ ac bcab|afec BcdB|
c2 ac bcac|c/c/c/ ac cBAB|cefg ~a3 b|afec BcdB||

